src/lib/packages/icons/src/assets/line/tiktok.svg

<svg width="24" height="24" viewBox="0 0 24 24" fill="none" xmlns="http://www.w3.org/2000/svg">
<path d="M20.53 6.78001C20.39 6.64001 20.2 6.56001 20 6.56001C19.23 6.56001 18.33 6.32002 17.8 5.97002C16.98 5.44002 16.41 4.60001 16.24 3.65001C16.2 3.44001 16.18 3.22001 16.19 3.01001C16.19 2.81001 16.11 2.62001 15.97 2.48001C15.83 2.34001 15.64 2.26001 15.44 2.26001H12.35C11.94 2.26001 11.6 2.60001 11.6 3.01001V15.3C11.6 15.49 11.57 15.68 11.51 15.86C11.36 16.34 11.03 16.73 10.59 16.96C10.15 17.19 9.63997 17.24 9.15997 17.09C8.67997 16.94 8.29 16.61 8.06 16.17C7.83 15.73 7.78 15.22 7.94 14.74C8.09 14.26 8.41999 13.87 8.85999 13.64C9.29999 13.41 9.80998 13.36 10.29 13.51C10.52 13.58 10.77 13.54 10.96 13.4C11.15 13.26 11.27 13.03 11.27 12.8V9.64001C11.27 9.27001 10.99 8.95001 10.62 8.90001C10.33 8.86001 10.03 8.84001 9.72998 8.84001C7.99998 8.84001 6.37997 9.51001 5.15997 10.73C3.93997 11.95 3.27001 13.57 3.26001 15.3C3.26001 18.87 6.15997 21.77 9.71997 21.77C13.28 21.77 16.19 18.87 16.19 15.31V10.32C17.34 10.85 18.68 11.15 19.99 11.15C20.41 11.15 20.76 10.82 20.76 10.4V7.33002C20.76 7.13002 20.68 6.94002 20.54 6.80002L20.53 6.78001ZM19.25 9.60002C18.01 9.47002 16.76 9.04001 15.87 8.40001C15.64 8.24001 15.34 8.21001 15.09 8.34001C14.84 8.47001 14.68 8.73001 14.68 9.01001V15.29C14.68 18.03 12.45 20.25 9.71002 20.25C6.97002 20.25 4.75 18.02 4.75 15.28C4.75 13.95 5.27002 12.71 6.21002 11.77C7.15002 10.83 8.38997 10.32 9.71997 10.32C9.71997 10.32 9.74 10.32 9.75 10.32V11.91C9.22 11.89 8.65002 12.03 8.15002 12.29C7.35002 12.71 6.75999 13.41 6.48999 14.27C6.21999 15.13 6.29997 16.04 6.71997 16.84C7.13997 17.64 7.84001 18.23 8.70001 18.5C9.56001 18.77 10.47 18.69 11.27 18.27C12.07 17.85 12.66 17.15 12.93 16.29C13.03 15.96 13.09 15.62 13.09 15.28V3.74002H14.74C14.74 3.80002 14.76 3.85002 14.77 3.91002C15.02 5.27002 15.84 6.47002 16.99 7.22002C17.58 7.61002 18.42 7.89002 19.26 8.00002V9.58002L19.25 9.60002Z" fill="currentColor"/>
</svg>

<svg xmlns="http://www.w3.org/2000/svg" width="24" height="24" fill="none"><path fill="currentColor" d="M20.53 6.78a.75.75 0 0 0-.53-.22c-.77 0-1.67-.24-2.2-.59a3.512 3.512 0 0 1-1.56-2.32c-.04-.21-.06-.43-.05-.64a.75.75 0 0 0-.75-.75h-3.09c-.41 0-.75.34-.75.75V15.3c0 .19-.03.38-.09.56-.15.48-.48.87-.92 1.1a1.87 1.87 0 0 1-2.53-.79c-.23-.44-.28-.95-.12-1.43.15-.48.48-.87.92-1.1.44-.23.95-.28 1.43-.13.23.07.48.03.67-.11.19-.14.31-.37.31-.6V9.64c0-.37-.28-.69-.65-.74-.29-.04-.59-.06-.89-.06-1.73 0-3.35.67-4.57 1.89a6.464 6.464 0 0 0-1.9 4.57c0 3.57 2.9 6.47 6.46 6.47s6.47-2.9 6.47-6.46v-4.99c1.15.53 2.49.83 3.8.83.42 0 .77-.33.77-.75V7.33c0-.2-.08-.39-.22-.53l-.01-.02ZM19.25 9.6c-1.24-.13-2.49-.56-3.38-1.2a.756.756 0 0 0-.78-.06.76.76 0 0 0-.41.67v6.28c0 2.74-2.23 4.96-4.97 4.96-2.74 0-4.96-2.23-4.96-4.97 0-1.33.52-2.57 1.46-3.51s2.18-1.45 3.51-1.45h.03v1.59c-.53-.02-1.1.12-1.6.38a3.36 3.36 0 0 0-1.66 1.98c-.27.86-.19 1.77.23 2.57.42.8 1.12 1.39 1.98 1.66.86.27 1.77.19 2.57-.23a3.36 3.36 0 0 0 1.66-1.98c.1-.33.16-.67.16-1.01V3.74h1.65c0 .06.02.11.03.17a5.074 5.074 0 0 0 2.22 3.31c.59.39 1.43.67 2.27.78v1.58l-.01.02Z"/></svg>
